icons/monitor-mac-alt.svg

<svg width="24" height="24" viewBox="0 0 24 24" fill="none" xmlns="http://www.w3.org/2000/svg">
<path fill-rule="evenodd" clip-rule="evenodd" d="M4.70001 2.75C3.3858 2.75 2.25 3.8858 2.25 5.20001V14.8C2.25 16.2428 3.41495 17.25 4.70001 17.25H8.15039L7.86022 19.5714C7.76052 20.0546 7.95817 20.4825 8.20963 20.7568C8.46733 21.0379 8.85946 21.25 9.29999 21.25H14.7C15.1405 21.25 15.5326 21.0379 15.7903 20.7568C16.0418 20.4825 16.2394 20.0546 16.1397 19.5714L15.8496 17.25H19.3C20.6142 17.25 21.75 16.1142 21.75 14.8V5.20001C21.75 3.75725 20.5851 2.75 19.3 2.75H4.70001ZM14.3379 17.25H9.66206L9.34956 19.75H14.6504L14.3379 17.25ZM3.75 5.20001C3.75 4.71423 4.21423 4.25 4.70001 4.25H19.3C19.8149 4.25 20.25 4.64277 20.25 5.20001V14.8C20.25 15.2858 19.7858 15.75 19.3 15.75H4.70001C4.18508 15.75 3.75 15.3572 3.75 14.8V5.20001Z" fill="black"/>
</svg>

<svg xmlns="http://www.w3.org/2000/svg" fill="none" viewBox="0 0 24 24">
  <path fill="#000" fill-rule="evenodd" d="M4.7 2.75c-1.314 0-2.45 1.136-2.45 2.45v9.6c0 1.443 1.165 2.45 2.45 2.45h3.45l-.29 2.321c-.1.484.098.912.35 1.186.257.28.65.493 1.09.493h5.4a1.5 1.5 0 0 0 1.09-.493c.252-.274.45-.702.35-1.186l-.29-2.321h3.45c1.314 0 2.45-1.136 2.45-2.45V5.2c0-1.443-1.165-2.45-2.45-2.45H4.7Zm9.638 14.5H9.662l-.312 2.5h5.3l-.312-2.5ZM3.75 5.2c0-.486.464-.95.95-.95h14.6c.515 0 .95.393.95.95v9.6c0 .486-.464.95-.95.95H4.7a.936.936 0 0 1-.95-.95V5.2Z" clip-rule="evenodd"/>
</svg>
